T: Blackbird's Wings, The
M: 2/4
L: 1/8
K: Dmaj
A-part ~ |: B/A/G | FAde f2 d/e/f | gf e/d/c dcBA | ABGA FG D/E/F | DDFA d2 ~ B-part, measure 3: ~ | aeee aeee | ~ | ae/e/ee ae/e/ee | ~ | ae e/f/g ae e/f/g | ~d3 ||: (3e/f/g/ | aeef g3 (3e/f/g/ | ~
